X:2
T:Grub Springs
L:1/8
R:reel
M:C|
K:A
|: "A"v[E2A,2]A-B c2c-B | cBAF E2[E2A,2] | [E2A,2]A-B cBAB | cBAF E2[E2A,2] |
  "A"[E2A,2]A-B c2c-B | cBAF E2A2 |\
   [c2E2][c2E2] [A2A2] | "D"F-EF2 "A"[E2A,2][E2A,2] :|
|: "A"[e3A3][fA]- [e2A2]f2- | "D"f2fa fec2  |\
   "A"[e3A3][fA]- [e2A2]f2- | "D"fefg [a4A4] |
   "A"[e3A3][fA]- [e4A4] | "D"f2fa fec2  |\
   "A"[e2A2][e2A2] "E"[e2B2][e2B2] | cBAF "A"E4 :|
N:Portland Collection, pg 91 - abc by Peter Ostapenko 5/12/2007
N:Adapted by Peter Ostapenko from Red Mountain White ... recording 6/3/2007
N:A Major
